X:104 
T:Lass Among the Primroses (reel), The 
S:Bogue
F:file ID: cre.4/104lass_p
B:CRE4.110 (Gearrchaile an tSabhaircÃÂÃÂÃÂÃÂ­n)
N:I changed the name to avoid confusion with other 'Primrose Lass/Girl' tunes.
Q:180
L:1/8
M:4/4
R:reel
K:Em
Eeed B2AG|FDAD BDAF|Eeed BABd|eBA^c BE E2:|
Beef gfeg|fdad bdad|Beef g2 fg|afdf e2 e2|
Beef gfeg|fdad bdad|gbag fagf|Bgfd e4 |]

%%%

